X: 30
T:Willow Tree, Headington
M:6/8
L:1/8
A:Headington
P:A2(AB)4
K:G
P:A
D|G2A B2c|d2g g2B|c2A d2B |G2F D2D|
G2A B2c|d2g g2B|c2A d2F |G3  G2 ||
P:B
G|AAA AGA|B3  G2G|AAA AGA |B3  G2D|
G2A B2c|d2g g2B|cBA A<dF|G3- G2 ||
W:
W: Oh, once they said my lips were red and now they're scarlet pale
W: Oh, I was a silly girl to believe his flatterinf tale
W: He vowed he'd never deceive me; I like a silly believed he
W: The moon and the stars they shone so bright
W: Over the willow tree.
W:                                              Quarry Men, ca 1950
W:
W: Oh, once they said my cheeks were red, but now they are drawn and pale
W: When I like a silly girl believed his flattering tale
W: He said he'd never deceive me, and I like a silly believed he
W: When the moon and the stars so brightly shone
W: Over the willow tree.
W:                                              Jour EFDSS
